X:271
T:Ballykeale Jig, The
R:jig
S:Fiddle player from Donegal.
Z:id:hn-jig-271
M:6/8
K:Ador
~A3 ABc|~A3 ABc|BGG DGG|BGB dcB|
ABA ABc|ABA A2a|bag edc|1 BdB GcB:|2 BdB ~G3||
|:~g3 gag|fde fdc|dgg gag|fde ~f3|
~g3 bag|fde fga|bag edc|1 BdB ~G3:|2 BdB GcB||
P:version of 1st part
|:A=FF ABc|A=FF ABc|BGG DGG|BG/A/B dcB|
A=FF ABc|A=FF A2a|bag edc|1 B/c/dB GcB:|2 B/c/dB ~G3||

